X:121
%%etbk:tnset id:43,pos:1,rep:3
%%etbk:site1 http://www.thesession.org/tunes/display/1335
%%etbk:tube1 http://www.youtube.com/embed/yI1hmBpvi0o
T: Bunch Of Green Rushes, The
Z: Piano Box Version by Martin Fleischmann (www.boxplayer.ch)
M: 4/4
L: 1/8
R: reel
K: Dmix
!3!d|:!2!c!1!A!2!GA !1!~=F3!5!d|!4!c!3!A!2!G!4!c !3!A!5!d!5!d!4!B|!5!c!3!A!2!G!1!E !1! =F2!5!ag|!3!^f!1!d!4!e!2!c !1!A!3!d~d2:|
|:!1!A2!3!dd c!1!A!2!G!1!E|!1!=F!2!G!3!A!4!c cA!2!G!4!c|!1!A2!3!dd !2!c!1!A!2!G!1!A| !2!c!3!d!4!e!5!g !5!g!4!e!3!d!2!c:||
|!1!d2!3!^fd !5!ad!3!fd|!2!cc !4!ec !5!gc!4!ec|!1!d2fd adfd|!2!c!1!A!1!G!2!c Add!2!^c|
|!1!d2fd adfd|!2!c3!1!B !2!c!3!d!2!e!4!g|!5!af !4!ge !3!fd!2!ed|!2!c!1!A!1!G!2!c !1!A!3!dd2||

